places/22/folder-blue.svg

<svg xmlns="http://www.w3.org/2000/svg" viewBox="0 0 22 22"><path d="M 5.873,3 C 4.2849099,2.996673 2.996673,4.2849099 3,5.873 V 16.127 C 2.996673,17.71509 4.2849099,19.003327 5.873,19 h 10.254 c 1.58809,0.0033 2.876327,-1.28491 2.873,-2.873 L 18.975,7.475 C 18.850722,5.9945947 17.612613,4.8564726 16.127,4.857 H 11.26 L 10.14,3.737 H 10.139 L 9.66,3.257 9.402,3 Z m 0.13,1.127 h 2.669 l 0.73,0.73 0.621,0.622 -3.8,3.779 H 4.127 V 6.004 c 0,-1.04 0.837,-1.877 1.877,-1.877 z M 17.873,10 c 0,1.784942 0,5.997 0,5.997 0,1.039 -0.837,1.876 -1.877,1.876 H 6.004 c -1.0375559,0.0022 -1.8792182,-0.839444 -1.877,-1.877 0,0 0,-4.246931 0,-4.996 C 4.127,10.250931 5,10.258 5,10.258 H 6.652 V 10.25 l 0.008,0.008 2,-2 7.34,-3.522e-4 c 0,0 1.873,-0.04259 1.873,1.7423522 z" fill="#3daee9"/></svg>

<svg xmlns="http://www.w3.org/2000/svg" viewBox="0 0 22 22"><path d="M5.873 3A2.867 2.867 0 0 0 3 5.873v10.254A2.867 2.867 0 0 0 5.873 19h10.254A2.867 2.867 0 0 0 19 16.127l-.025-8.652a2.857 2.857 0 0 0-2.848-2.618H11.26l-1.12-1.12h-.001l-.479-.48L9.402 3zm.13 1.127h2.669l.73.73.621.622-3.8 3.779H4.127V6.004c0-1.04.837-1.877 1.877-1.877zm11.87 4.11v7.76c0 1.039-.837 1.876-1.877 1.876H6.004a1.873 1.873 0 0 1-1.877-1.877v-5.738H6.652v-.008l.008.008 2-2z" fill="#3daee9"/></svg>
